!!!!SEGMENT: pl-sa--288-a-vii-48--003_lechleitner-ferdinand-simon--litania-de-b-v-mariae-virgo-prudentissima.krn
!!!cenid: 17xx:438
!!!COM: Lechleitner, Ferdinand Simon
!!!COM-rismID: pe30001903
!!!CDT: ~1700-~1800
!!!CNT:
!!!OPR: Litania de B.V. Mariae
!!!OTL: Virgo prudentissima
!!!OMV: 003
!!!PDT: 1741
!!!AGN: Sacred; Mass
!!!SMS-siglum: PL-SA
!!!SMS-shelfmark: 288/A VII 48
!!!SMS-shelfwork: 001-003 M
!!!NIFC-rismSourceID: 1001039077
!!!NIFC-islandoraID:
!!!URL-pdf-islandora:
!!!URL-scan: https://bc.bdsandomierz.pl/dlibra/publication/1784/edition/1752/content @EN{Scan on Cyfrowa Biblioteka Diecezjalna w Sandomierzu} @PL{Skany w portalu Cyfrowa Biblioteka Diecezjalna w Sandomierzu}
!!!ONB-nifc: UWAGA: części Litanii: Kyrie, Sancta Maria, Virgo prudentissima, Speculum iustitiae, Salus infirmorum, Regina angelorum, Agnus Dei
!!!AIN: 1 alto 3 empty 1 tenor 1 viola 2 violn 1 vox
!!!key:
**kern	**fba	**kern	**kern	**kern	**text	**kern	**kern	**kern	**kern	**kern
*part9	*	*part8	*part7	*part6	*part6	*part5	*part4	*part3	*part2	*part1
*group3	*	*group3	*group3	*group2	*	*group2	*group2	*group2	*group1	*group1
*staff9	*	*staff8	*staff7	*staff6	*staff6	*staff5	*staff4	*staff3	*staff2	*staff1
*Iviola	*	*Ivioln	*Ivioln	*Iempty	*	*Itenor	*Ialto	*Ivox	*Iempty	*Iempty
*I"Viola Baſso	*	*I"Violino 2do	*I"Violino 1mo	*I"Baſso	*	*I"Tenore	*I"Alto	*I"Canto	*I"Clarino 2do Ex. B.	*I"Clarino Imo Ex. B.
*I'vla basso	*	*I'vl II	*I'vl I	*I'B	*	*I'T	*I'A	*I'S	*I'clno II	*I'clno I
*clefF4	*	*clefG2	*clefG2	*clefF4	*	*clefC4	*clefC3	*clefC1	*clefG2	*clefG2
*ITrd0c0	*	*	*	*	*	*	*	*	*ITrd1c2	*ITrd1c2
*k[b-e-]	*	*k[b-e-]	*k[b-e-]	*k[b-e-]	*	*k[b-e-]	*k[b-e-]	*k[b-e-]	*k[b-e-]	*k[b-e-]
*B-:	*	*B-:	*B-:	*B-:	*	*B-:	*B-:	*B-:	*B-:	*B-:
*M4/4	*	*M4/4	*M4/4	*M4/4	*	*M4/4	*M4/4	*M4/4	*M4/4	*M4/4
*met(c)	*	*met(c)	*met(c)	*met(c)	*	*met(c)	*met(c)	*met(c)	*met(c|)	*met(c|)
=1	=1	=1	=1	=1	=1	=1	=1	=1	=1	=1
!LO:TX:a:t=P:problem=brak nazwy partii na karcie głosu, na stronie tytułowej "Viola Baſso"	!	!	!	!	!	!	!	!	!	!
!LO:TX:a:t=P:problem=bemole BB- E- B-	!	!LO:TX:a:t=P:problem=bemole ee- b-	!LO:TX:a:t=P:problem=bemole ee- b-	!LO:TX:a:t=P:problem=bemole BB- E- B-	!	!	!	!	!	!
!LO:TX:t=P:problem=mixed beam	!	!	!	!	!	!	!	!	!	!
!LO:TX:b:t=Virgo.	!	!	!	!	!	!	!	!	!	!
!LO:TX:a:i:t=Solo	!	!LO:TX:b:t=Virgo pru&colon;	!	!	!	!	!	!	!	!
!LO:TX:a:t=Allegro	!	!LO:TX:a:B:t=Alle&colon;	!LO:TX:b:t=Virgo Prudentiſsima	!	!	!LO:TX:a:t=Virgo Pruden(tiſsima)\nTacet Baſ.	!LO:TX:a:t=Virgo Prudentiſsima\nTacet B. V.V.	!LO:TX:a:t=Virgo Prudentiſsima\nTacet B. 2 VV	!LO:TX:b:t=Virgo Pruden(tiſsima)	!LO:TX:b:t=Virgo Prudentiſsima
8BB-/L	.	8dd\L	8bb-\L	00r	.	1ryy	1ryy	1ryy	00r	00r
8B-\	.	16dd\L	16ff\L	.	.	.	.	.	.	.
.	.	16cc\JJ	16ee-\JJ	.	.	.	.	.	.	.
8B-\	.	8b-/L	16dd\LL	.	.	.	.	.	.	.
.	.	.	16cc\	.	.	.	.	.	.	.
8B-\J	.	8f/J	16dd\	.	.	.	.	.	.	.
.	.	.	16b-\JJ	.	.	.	.	.	.	.
!	!	!LO:LB:g=original	!	!	!	!	!	!	!	!
8A\L	6	8f/L	16cc/LL	.	.	.	.	.	.	.
.	.	.	16f/	.	.	.	.	.	.	.
8A\	.	8f/	16g/	.	.	.	.	.	.	.
.	.	.	16a/JJ	.	.	.	.	.	.	.
8G\	6	8g/	16b-\LL	.	.	.	.	.	.	.
.	.	.	16cc\	.	.	.	.	.	.	.
8G\J	.	8g/J	16dd\	.	.	.	.	.	.	.
.	.	.	16ee-\JJ	.	.	.	.	.	.	.
=2	=2	=2	=2	=2	=2	=2	=2	=2	=2	=2
8F\L	.	8a/L	8ff\L	.	.	1ryy	1ryy	1ryy	.	.
8B-\	.	8b-/	16ee-\L	.	.	.	.	.	.	.
.	.	.	16dd\JJ	.	.	.	.	.	.	.
8E-\	6	8g/	16ee-\LL	.	.	.	.	.	.	.
.	.	.	16cc\	.	.	.	.	.	.	.
8F\J	.	8a/J	16ff\	.	.	.	.	.	.	.
.	.	.	16ee-\JJ	.	.	.	.	.	.	.
8BB-/L	.	8f/L	8dd\L	.	.	.	.	.	.	.
16BB-/L	.	16d/L	8b-\J	.	.	.	.	.	.	.
16C/JJ	.	16e-/JJ	.	.	.	.	.	.	.	.
!	!	!LO:TX:t=P:problem=mixed beam	!	!	!	!	!	!	!	!
8D/L	6	8f/L	16r	.	.	.	.	.	.	.
.	.	.	16b-\LL	.	.	.	.	.	.	.
8BB-/J	.	8dd\J	16dd\	.	.	.	.	.	.	.
.	.	.	16ff\JJ	.	.	.	.	.	.	.
=3	=3	=3	=3	=3	=3	=3	=3	=3	=3	=3
8E-\L	.	8b-/L	(16gg\LL	.	.	1ryy	1ryy	1ryy	.	.
.	.	.	16ee-\	.	.	.	.	.	.	.
8E-\	.	8b-/	16dd\	.	.	.	.	.	.	.
.	.	.	16ee-\JJ)	.	.	.	.	.	.	.
8E-\	.	8b-/	16gg\LL	.	.	.	.	.	.	.
.	.	.	16ee-\	.	.	.	.	.	.	.
8E-\J	.	8b-/J	16dd\	.	.	.	.	.	.	.
.	.	.	16ee-\JJ	.	.	.	.	.	.	.
4D/	6\	4b-/	16ff\LL	.	.	.	.	.	.	.
.	.	.	16ee-\	.	.	.	.	.	.	.
.	.	.	16dd\	.	.	.	.	.	.	.
.	.	.	16cc\JJ	.	.	.	.	.	.	.
!	!	!	!LO:LB:g=original	!	!	!	!	!	!	!
4r	.	4r	16b-\LL	.	.	.	.	.	.	.
.	.	.	16cc\	.	.	.	.	.	.	.
.	.	.	16dd\	.	.	.	.	.	.	.
.	.	.	16ee-\JJ	.	.	.	.	.	.	.
=4	=4	=4	=4	=4	=4	=4	=4	=4	=4	=4
8D/L	6	8b-/L	(16ff\LL	.	.	1ryy	1ryy	1ryy	.	.
.	.	.	16dd\	.	.	.	.	.	.	.
8D/	.	8b-/	16cc\	.	.	.	.	.	.	.
.	.	.	16dd\JJ)	.	.	.	.	.	.	.
8D/	.	8b-/	(16ff\LL	.	.	.	.	.	.	.
.	.	.	16dd\	.	.	.	.	.	.	.
8D/J	.	8b-/J	16cc\	.	.	.	.	.	.	.
.	.	.	16dd\JJ)	.	.	.	.	.	.	.
4C/	-	4g/	16ee-\LL	.	.	.	.	.	.	.
.	.	.	16dd\	.	.	.	.	.	.	.
.	.	.	16cc\	.	.	.	.	.	.	.
.	.	.	16b-\JJ	.	.	.	.	.	.	.
4r	.	4r	16a\LL	.	.	.	.	.	.	.
.	.	.	16b-\	.	.	.	.	.	.	.
.	.	.	16cc\	.	.	.	.	.	.	.
.	.	.	16dd\JJ	.	.	.	.	.	.	.
!LO:LB:g=original	!	!	!	!	!	!	!	!	!	!
=5	=5	=5	=5	=5	=5	=5	=5	=5	=5	=5
8C/L	.	8a/L	(16ee-\LL	0r	.	1ryy	1ryy	1ryy	00r	00r
.	.	.	16cc\	.	.	.	.	.	.	.
8C/	6	8a/	16b-\	.	.	.	.	.	.	.
.	.	.	16cc\JJ)	.	.	.	.	.	.	.
8C/	.	8a/	(16ee-\LL	.	.	.	.	.	.	.
.	.	.	16cc\	.	.	.	.	.	.	.
8C/J	.	8a/J	16b-\	.	.	.	.	.	.	.
.	.	.	16cc\JJ)	.	.	.	.	.	.	.
4BB-/	.	4f/	16dd\LL	.	.	.	.	.	.	.
.	.	.	16cc\	.	.	.	.	.	.	.
.	.	.	16b-\	.	.	.	.	.	.	.
.	.	.	16a\JJ	.	.	.	.	.	.	.
4r	.	8r	16b-\LL	.	.	.	.	.	.	.
.	.	.	16cc\	.	.	.	.	.	.	.
.	.	8dd\	16dd\	.	.	.	.	.	.	.
.	.	.	16ee-\JJ	.	.	.	.	.	.	.
=6	=6	=6	=6	=6	=6	=6	=6	=6	=6	=6
4BB-/	.	(16dd\LL	(16ff\LL	.	.	1ryy	1ryy	1ryy	.	.
.	.	16ee-\)	16gg\	.	.	.	.	.	.	.
.	.	(16ee-\	16gg\	.	.	.	.	.	.	.
.	.	16dd\JJ)	16ff\JJ)	.	.	.	.	.	.	.
4E-\	6	(16dd\LL	16ff\LL	.	.	.	.	.	.	.
.	.	16cc\)	16ee-\	.	.	.	.	.	.	.
.	.	(16cc\	16ee-\	.	.	.	.	.	.	.
.	5	16b-\JJ)	16dd\JJ	.	.	.	.	.	.	.
8F\L	.	8a/L	8cc/L	.	.	.	.	.	.	.
16F\L	.	16a/L	8f/J	.	.	.	.	.	.	.
16G\JJ	.	16b-/JJ	.	.	.	.	.	.	.	.
8A\L	6	8cc/L	16r	.	.	.	.	.	.	.
.	.	.	16f/LL	.	.	.	.	.	.	.
8F\J	.	8a/J	16a/	.	.	.	.	.	.	.
.	.	.	16cc/JJ	.	.	.	.	.	.	.
=7	=7	=7	=7	=7	=7	=7	=7	=7	=7	=7
8r	.	16cc\LL	16ee-\LL	1r	.	1ryy	1ryy	1ryy	.	.
.	.	16b-\	16dd\	.	.	.	.	.	.	.
8F\L	7_	16a\	16cc\	.	.	.	.	.	.	.
.	.	16b-\JJ	16dd\JJ	.	.	.	.	.	.	.
8F\	.	16cc\LL	16ee-\LL	.	.	.	.	.	.	.
.	.	16ee-\	16gg\	.	.	.	.	.	.	.
8F\J	.	16dd\	16ff\	.	.	.	.	.	.	.
.	X	16cc\JJ	16ee-\JJ	.	.	.	.	.	.	.
!LO:TX:t=P:problem=mixed beam	!	!LO:LB:g=original	!	!	!	!	!	!	!	!
8B-\L	.	8b-/L	16dd\LL	.	.	.	.	.	.	.
.	.	.	16cc\	.	.	.	.	.	.	.
8D/	6	8f/	16b-\	.	.	.	.	.	.	.
.	.	.	16cc\JJ	.	.	.	.	.	.	.
!	!	!	!LO:LB:g=original	!	!	!	!	!	!	!
8BB-/	.	8f/	16dd\LL	.	.	.	.	.	.	.
.	.	.	16ff\	.	.	.	.	.	.	.
8D/J	6	8f/J	16ee-\	.	.	.	.	.	.	.
!	!	!	!	!LO:TX:a:i:t=Solo	!	!	!	!	!	!
.	.	.	16dd\JJ	.	.	.	.	.	.	.
=8	=8	=8	=8	=8	=8	=8	=8	=8	=8	=8
!LO:TX:t=P:problem=mixed beam	!	!	!	!	!	!	!	!	!	!
8E-\L	.	8g/L	16cc\LL	4r	.	1ryy	1ryy	1ryy	.	.
.	.	.	16dd\	.	.	.	.	.	.	.
8G\	6	8e-/	16b-\	.	.	.	.	.	.	.
.	.	.	16cc\JJ	.	.	.	.	.	.	.
8F\	4	8c/	8f/L	8B-\	Vir-	.	.	.	.	.
8FF/J	3	8f/J	8a/J	8F\	-go	.	.	.	.	.
4BB-/	.	4d/	4b-/	8D/	Vir-	.	.	.	.	.
.	.	.	.	8BB-/	-go	.	.	.	.	.
!	!	!	!	!LO:LB:g=original	!	!	!	!	!	!
4r	.	4r	4r	(16D\LL	Pru-	.	.	.	.	.
.	.	.	.	16E-\JJ)	.	.	.	.	.	.
!	!	!	!	!LO:TX:t=P:problem=mixed beam	!	!	!	!	!	!
.	.	.	.	(>16F\LL	-den-	.	.	.	.	.
.	.	.	.	16FF/JJ)	.	.	.	.	.	.
=9	=9	=9	=9	=9	=9	=9	=9	=9	=9	=9
8r	.	4r	4r	8.BB-/L	-tiſ-	1ryy	1ryy	1ryy	00r	00r
16BB-/LL	.	.	.	.	.	.	.	.	.	.
16C/JJ	.	.	.	16BB-/Jk	-si-	.	.	.	.	.
8D/L	6	8r	16r	8BB-/	-ma	.	.	.	.	.
.	.	.	16b-\LL	.	.	.	.	.	.	.
8BB-/J	.	8dd\	16dd\	8r	.	.	.	.	.	.
.	.	.	16ff\JJ	.	.	.	.	.	.	.
8BB-/L	.	(16dd\LL	(16ff\LL	2r	.	.	.	.	.	.
.	.	16ee-\)	16gg\	.	.	.	.	.	.	.
8BB-/J	.	(16ee-\	16gg\	.	.	.	.	.	.	.
.	.	16dd\JJ)	16ff\JJ)	.	.	.	.	.	.	.
8E-\L	6	(16dd\LL	(16ff\LL	.	.	.	.	.	.	.
.	.	16cc\)	16ee-\	.	.	.	.	.	.	.
8E-\J	5	(16cc\	16ee-\	.	.	.	.	.	.	.
.	.	16b-\JJ)	16dd\JJ)	.	.	.	.	.	.	.
=10	=10	=10	=10	=10	=10	=10	=10	=10	=10	=10
8F\L	.	8a\L	8cc/L	1r	.	1ryy	1ryy	1ryy	.	.
16F\L	.	16a\L	8f/J	.	.	.	.	.	.	.
16G\JJ	.	16b-\JJ	.	.	.	.	.	.	.	.
8A\L	6	8cc\L	16r	.	.	.	.	.	.	.
.	.	.	16f/LL	.	.	.	.	.	.	.
8F\J	.	8a\J	16a/	.	.	.	.	.	.	.
.	.	.	16cc/JJ	.	.	.	.	.	.	.
8r	.	16cc\LL	16ee-\LL	.	.	.	.	.	.	.
.	.	16b-\	16dd\	.	.	.	.	.	.	.
8F\L	7_	16a\	16cc\	.	.	.	.	.	.	.
.	.	16b-\JJ	16dd\JJ	.	.	.	.	.	.	.
8F\	.	16cc\LL	16ee-\LL	.	.	.	.	.	.	.
.	.	16ee-\	16gg\	.	.	.	.	.	.	.
8F\J	.	16dd\	16ff\	.	.	.	.	.	.	.
.	X	16cc\JJ	16ee-\JJ	.	.	.	.	.	.	.
=11	=11	=11	=11	=11-	=11	=11	=11	=11	=11	=11
!LO:TX:t=P:problem=mixed beam	!	!	!	!	!	!	!	!	!	!
8B-\L	.	8b-/L	16dd\LL	2r	.	1ryy	1ryy	1ryy	.	.
.	.	.	16cc\	.	.	.	.	.	.	.
8D/	6	8f/	16b-\	.	.	.	.	.	.	.
.	.	.	16cc\JJ	.	.	.	.	.	.	.
8BB-/	.	8f/	16dd\LL	.	.	.	.	.	.	.
.	.	.	16ff\	.	.	.	.	.	.	.
8D/J	6	8f/J	16ee-\	.	.	.	.	.	.	.
.	.	.	16dd\JJ	.	.	.	.	.	.	.
!LO:LB:g=original	!	!	!	!	!	!	!	!	!	!
!LO:TX:t=P:problem=mixed beam	!	!	!	!	!	!	!	!	!	!
8E-\L	.	8g/L	16cc\LL	4r	.	.	.	.	.	.
.	.	.	16dd\	.	.	.	.	.	.	.
8G\	.	8e-/	16b-\	.	.	.	.	.	.	.
.	.	.	16cc\JJ	.	.	.	.	.	.	.
8F\	4	8c/	8f/L	8B-\	Vir-	.	.	.	.	.
8FF/J	3	8f/J	8a/J	8F\	-go	.	.	.	.	.
=12	=12	=12	=12	=12	=12	=12	=12	=12	=12	=12
*	*	*	*	*	*ij	*	*	*	*	*
4BB-/	.	4d/	4b-/	8D/	Vir-	1ryy	1ryy	1ryy	.	.
.	.	.	.	8BB-/	-go	.	.	.	.	.
*	*	*	*	*	*Xij	*	*	*	*	*
4r	.	4r	4r	(16D\LL	Ve-	.	.	.	.	.
.	.	.	.	16E-\JJ)	.	.	.	.	.	.
!	!	!	!	!LO:TX:t=P:problem=mixed beam	!	!	!	!	!	!
.	.	.	.	(>16F\LL	-ne-	.	.	.	.	.
.	.	.	.	16FF/JJ)	.	.	.	.	.	.
!	!	!	!LO:LB:g=original	!	!	!	!	!	!	!
8BB-/L	.	2rg	2rg	8BB-/	-ran-	.	.	.	.	.
16BB-/L	.	.	.	8BB-/	-da	.	.	.	.	.
16C/JJ	.	.	.	.	.	.	.	.	.	.
8D/L	6	.	.	8F\	Vir-	.	.	.	.	.
8BB-/J	.	.	.	8B-\	-go	.	.	.	.	.
=13	=13	=13	=13	=13	=13	=13	=13	=13	=13	=13
8E-\L	.	2rg	2rg	(16G\LL	Vir-	1ryy	1ryy	1ryy	00r	00r
.	.	.	.	16F\JJ)	.	.	.	.	.	.
8F\	.	.	.	(16G\LL	-go	.	.	.	.	.
.	.	.	.	16A\JJ)	.	.	.	.	.	.
8G\	.	.	.	(16B-\LL	-prae-	.	.	.	.	.
.	.	.	.	16A\JJ)	.	.	.	.	.	.
8E-\J	.	.	.	(16B-\LL	-di-	.	.	.	.	.
.	.	.	.	16G\JJ)	.	.	.	.	.	.
8F\L	.	4r	4r	8A\	-can-	.	.	.	.	.
16F\L	.	.	.	8D\	-da	.	.	.	.	.
16E-\JJ	.	.	.	.	.	.	.	.	.	.
8D/L	6	8r	8r	8B-\	o-	.	.	.	.	.
8BB-/J	.	8dd\	8ff\	8B-\	-ra	.	.	.	.	.
!	!	!LO:LB:g=original	!	!	!	!	!	!	!	!
=14	=14	=14	=14	=14	=14	=14	=14	=14	=14	=14
*	*	*	*	*2\right	*	*	*	*	*	*
2r	.	(16ee-\LL	(16gg\LL	2B-\	o-	1ryy	1ryy	1ryy	.	.
.	.	16dd\)	16ff\	.	.	.	.	.	.	.
.	.	(16dd\	16ff\	.	.	.	.	.	.	.
.	.	16cc\JJ)	16ee-\JJ)	.	.	.	.	.	.	.
.	.	(16cc\LL	16ee-\LL	.	.	.	.	.	.	.
.	.	16ee-\)	16gg\	.	.	.	.	.	.	.
.	.	(16dd\	16ff\	.	.	.	.	.	.	.
.	.	16cc\JJ)	16ee-\JJ	.	.	.	.	.	.	.
8r	.	8dd\L	8ff\L	16B-\	-ra	.	.	.	.	.
.	.	.	.	16BB-/LL	o-	.	.	.	.	.
8BB-/	.	8b-\J	8dd\J	16C/	.	.	.	.	.	.
.	.	.	.	16D/JJ	.	.	.	.	.	.
8F\L	.	4r	4r	16E-\LL	.	.	.	.	.	.
.	.	.	.	16F\	.	.	.	.	.	.
8E-\J	4 3	.	.	16G\	.	.	.	.	.	.
.	.	.	.	16A\JJ	.	.	.	.	.	.
!	!	!	!	!LO:LB:g=original	!	!	!	!	!	!
=15	=15	=15	=15	=15	=15	=15	=15	=15	=15	=15
!LO:TX:t=P:problem=mixed beam	!	!	!	!	!	!	!	!	!	!
8D\L	6	2rg	2rg	8B-\	-ra	1ryy	1ryy	1ryy	.	.
8E-\	6	.	.	8E-\	pro	.	.	.	.	.
!	!	!	!	!LO:TX:t=P:problem=mixed beam	!	!	!	!	!	!
8F\	.	.	.	(>8F\L	no-	.	.	.	.	.
8FF/J	4	.	.	8FF/J)	.	.	.	.	.	.
.	3	.	.	.	.	.	.	.	.	.
4BB-/	.	8r	16r	4BB-/	-bis	.	.	.	.	.
.	.	.	16b-\LL	.	.	.	.	.	.	.
!	!	!LO:TX:t=P:problem=mixed beam	!	!	!	!	!	!	!	!
.	.	8f/L	16dd\	.	.	.	.	.	.	.
.	.	.	16ff\JJ	.	.	.	.	.	.	.
8r	.	8f/	16dd\LL	4r	.	.	.	.	.	.
.	.	.	16b-\	.	.	.	.	.	.	.
8BB-/	.	8dd\J	16dd\	.	.	.	.	.	.	.
.	.	.	16ff\JJ	.	.	.	.	.	.	.
=16	=16	=16	=16	=16	=16	=16	=16	=16	=16	=16
8E-\L	.	8b-/L	(16gg\LL	1r	.	1ryy	1ryy	1ryy	.	.
.	.	.	16ee-\	.	.	.	.	.	.	.
8E-\	.	8b-/	16dd\	.	.	.	.	.	.	.
.	.	.	16ee-\JJ)	.	.	.	.	.	.	.
8E-\	.	8b-/	(16gg\LL	.	.	.	.	.	.	.
.	.	.	16ee-\	.	.	.	.	.	.	.
8E-\J	.	8b-/J	16dd\	.	.	.	.	.	.	.
.	.	.	16ee-\JJ)	.	.	.	.	.	.	.
4D/	6	8b-/L	(16ff\LL	.	.	.	.	.	.	.
.	.	.	16ee-\	.	.	.	.	.	.	.
.	.	8f/J	16dd\	.	.	.	.	.	.	.
.	.	.	16cc\JJ)	.	.	.	.	.	.	.
8D/L	6	16b-/LL	16b-\LL	.	.	.	.	.	.	.
.	.	16a/	16cc\	.	.	.	.	.	.	.
8C/J	6	16b-/	16dd\	.	.	.	.	.	.	.
.	.	16cc/JJ	16ee-\JJ	.	.	.	.	.	.	.
=17	=17	=17	=17	=17-	=17	=17	=17	=17	=17	=17
8BB-/L	.	8dd\L	8ff\L	2r	.	1ryy	1ryy	1ryy	00r	00r
8D/J	6	8b-\J	8b-\J	.	.	.	.	.	.	.
8E-\L	6	8g/L	8cc\L	.	.	.	.	.	.	.
8F\J	.	8f/J	16b-\L	.	.	.	.	.	.	.
.	.	.	16a\JJ	.	.	.	.	.	.	.
4BB-/	.	4f/	4b-/	8B-\	Vir-	.	.	.	.	.
.	.	.	.	8F\	-go	.	.	.	.	.
8r	.	4r	4r	16D\LL	Vir-	.	.	.	.	.
.	.	.	.	16E-\JJ	.	.	.	.	.	.
!	!	!	!	!LO:TX:t=P:problem=mixed beam	!	!	!	!	!	!
8FF/	.	.	.	16F\LL	-go	.	.	.	.	.
.	.	.	.	16FF/JJ	.	.	.	.	.	.
!LO:LB:g=original	!	!	!	!	!	!	!	!	!	!
=18	=18	=18	=18	=18	=18	=18	=18	=18	=18	=18
!	!	!LO:TX:a:t=3	!	!	!	!	!	!	!	!
8BB-/L	.	0r	1r	8BB-/	-po-	1ryy	1ryy	1ryy	.	.
16BB-/L	.	.	.	8BB-/	-tens	.	.	.	.	.
16C/JJ	.	.	.	.	.	.	.	.	.	.
8D/L	6	.	.	8F\	Vir-	.	.	.	.	.
8BB-/J	.	.	.	8F\	-go	.	.	.	.	.
8GG/L	.	.	.	16B-\LL	Cle-	.	.	.	.	.
.	.	.	.	16c\	.	.	.	.	.	.
8AA/	6\	.	.	16B-\	.	.	.	.	.	.
.	.	.	.	16A\JJ	.	.	.	.	.	.
8BB-/	6	.	.	16G\LL	.	.	.	.	.	.
.	.	.	.	16B-\	.	.	.	.	.	.
8C/J	6	.	.	16A\	.	.	.	.	.	.
.	5	.	.	16G\JJ	.	.	.	.	.	.
!	!	!	!LO:LB:g=original	!	!	!	!	!	!	!
=19	=19	=19	=19	=19	=19	=19	=19	=19	=19	=19
8D/L	.	.	4r	8F#X\	.	1ryy	1ryy	1ryy	.	.
16D/L	.	.	.	8D,<\	-mens	.	.	.	.	.
16C/JJ	.	.	.	.	.	.	.	.	.	.
8BB-/L	6	.	8b-\L	8G\	O-	.	.	.	.	.
8AA/J	6	.	8cc\J	8A\	-ra	.	.	.	.	.
4GG/	.	.	16dd\LL	16B-\LL	O-	.	.	.	.	.
.	.	.	16cc\	16A\	.	.	.	.	.	.
.	.	.	16dd\	16B-\	.	.	.	.	.	.
.	.	.	16ee-\JJ	16c\JJ	.	.	.	.	.	.
8r	.	.	16dd\LL	16B-\LL	.	.	.	.	.	.
.	.	.	16ee-\	16c\	.	.	.	.	.	.
8GG/	.	.	16dd\	16B-\	.	.	.	.	.	.
.	.	.	16ee-\JJ	16c\JJ	.	.	.	.	.	.
=20	=20	=20	=20	=20	=20	=20	=20	=20	=20	=20
4AA/	7	1r	16cc\LL	16A\LL	.	1ryy	1ryy	1ryy	.	.
.	.	.	16b-\	16G\	.	.	.	.	.	.
.	.	.	16cc\	16A\	.	.	.	.	.	.
.	.	.	16dd\JJ	16B-\JJ	.	.	.	.	.	.
8r	.	.	16cc\LL	16A\LL	.	.	.	.	.	.
.	.	.	16dd\	16B-\	.	.	.	.	.	.
8D\	7 #	.	16cc\	16A\	.	.	.	.	.	.
.	.	.	16dd\JJ	16B-\JJ	.	.	.	.	.	.
!LO:TX:t=P:problem=mixed beam	!	!	!	!	!	!	!	!	!	!
8G\L	.	.	8b-/L	8G\	-ra	.	.	.	.	.
!	!	!	!	!LO:LB:g=original	!	!	!	!	!	!
8c\	6 5	.	8g/J	8c\	pro	.	.	.	.	.
!	!	!	!	!LO:TX:t=P:problem=mixed beam	!	!	!	!	!	!
8d\	.	.	4r	(>8d\L	no-	.	.	.	.	.
8D/J	4	.	.	8D/J)	.	.	.	.	.	.
.	.#	.	.	.	.	.	.	.	.	.
=21	=21	=21	=21	=21	=21	=21	=21	=21	=21	=21
!LO:TX:t=P:problem=mixed beam	!	!	!	!	!	!	!	!	!	!
8GG/L	.	8b-/L	8gg\L	4G\	-bis	1ryy	1ryy	1ryy	00r	00r
8G\	.	16b-/L	16dd\L	.	.	.	.	.	.	.
.	.	16a/JJ	16cc\JJ	.	.	.	.	.	.	.
8G\	.	8g/L	16b-/LL	4r	.	.	.	.	.	.
.	.	.	16a/	.	.	.	.	.	.	.
8G\J	.	8d/	16b-/	.	.	.	.	.	.	.
.	.	.	16g/JJ	.	.	.	.	.	.	.
8F#X\L	6	8d/	16a/LL	2r	.	.	.	.	.	.
.	.	.	16d/	.	.	.	.	.	.	.
8Fn\J	6	8d/J	16e-/	.	.	.	.	.	.	.
.	.	.	16f#X/JJ	.	.	.	.	.	.	.
8En\L	6	8r	16g/LL	.	.	.	.	.	.	.
.	.	.	16a/	.	.	.	.	.	.	.
8E-X\J	6	8g/	16b-/	.	.	.	.	.	.	.
.	.	.	16cc/JJ	.	.	.	.	.	.	.
!	!	!LO:LB:g=original	!	!	!	!	!	!	!	!
=22	=22	=22	=22	=22	=22	=22	=22	=22	=22	=22
8D\L	#	8f#X/L	8dd\L	0r	.	1ryy	1ryy	1ryy	.	.
8G\J	-	8g/	16cc\L	.	.	.	.	.	.	.
.	.	.	16b-\JJ	.	.	.	.	.	.	.
8C/L	6 5	8g/	16cc\LL	.	.	.	.	.	.	.
.	.	.	16a\	.	.	.	.	.	.	.
8D/J	#	8f#/J	16dd\	.	.	.	.	.	.	.
.	.	.	16cc\JJ	.	.	.	.	.	.	.
!LO:TX:t=P:problem=mixed beam	!	!	!	!	!	!	!	!	!	!
8GG/L	-	8g/L	8b-/L	.	.	.	.	.	.	.
16G\L	.	16b-/L	8g/J	.	.	.	.	.	.	.
16A\JJ	.	16cc/JJ	.	.	.	.	.	.	.	.
8B-\L	.	8dd/L	16r	.	.	.	.	.	.	.
.	.	.	16g/LL	.	.	.	.	.	.	.
8G\J	.	8b-/J	16b-/	.	.	.	.	.	.	.
.	.	.	16dd/JJ	.	.	.	.	.	.	.
!	!	!	!LO:LB:g=original	!	!	!	!	!	!	!
=23	=23	=23	=23	=23	=23	=23	=23	=23	=23	=23
8C/L	-	8g/L	16ee-\LL	.	.	1ryy	1ryy	1ryy	.	.
.	.	.	16cc\	.	.	.	.	.	.	.
8C/	.	8g/	16b-\	.	.	.	.	.	.	.
.	.	.	16cc\JJ	.	.	.	.	.	.	.
8C/	.	8g/	16ee-\LL	.	.	.	.	.	.	.
.	.	.	16cc\	.	.	.	.	.	.	.
8C/J	.	8g/J	16b-\	.	.	.	.	.	.	.
.	.	.	16cc\JJ	.	.	.	.	.	.	.
!LO:LB:g=original	!	!	!	!	!	!	!	!	!	!
8BB-/L	6	8g/L	16dd\LL	.	.	.	.	.	.	.
.	.	.	16cc\	.	.	.	.	.	.	.
8C/J	6	8e-X/J	16b-\	.	.	.	.	.	.	.
.	.	.	16cc\JJ	.	.	.	.	.	.	.
!LO:TX:t=P:problem=mixed beam	!	!	!	!	!	!	!	!	!	!
8D\L	6 4	8d/L	8.a/L	.	.	.	.	.	.	.
.	x #	.	.	.	.	.	.	.	.	.
8DD/J	.	8d/J	.	.	.	.	.	.	.	.
.	.	.	16g/Jk	.	.	.	.	.	.	.
=24	=24	=24	=24	=24	=24	=24	=24	=24	=24	=24
4GG/	.	4d/	4g/	8G\	Vir-	1ryy	1ryy	1ryy	.	.
.	.	.	.	8d\	-go	.	.	.	.	.
8G\L	.	4r	4r	16B-\LL	Vir-	.	.	.	.	.
.	.	.	.	16c\JJ	.	.	.	.	.	.
8F#X\J	6	.	.	16d\	-go	.	.	.	.	.
.	.	.	.	16D/	fi-	.	.	.	.	.
8G\L	.	2rg	2rg	8G\	-de-	.	.	.	.	.
16F#\L	.	.	.	8G\	-lis	.	.	.	.	.
16E-\JJ	.	.	.	.	.	.	.	.	.	.
8D/L	6	.	.	8D/	o-	.	.	.	.	.
8BB-/J	.	.	.	8G\	-ra	.	.	.	.	.
=25	=25	=25	=25	=25	=25	=25	=25	=25	=25	=25
!	!	!LO:TX:a:t=3	!	!	!	!	!	!	!	!
8C/L	.	0r	0r	16E-\LL	o-	1ryy	1ryy	1ryy	00r	00r
.	.	.	.	16D\	.	.	.	.	.	.
8BB-/	.	.	.	16E-\	.	.	.	.	.	.
.	.	.	.	16F\JJ	.	.	.	.	.	.
8C/	.	.	.	16E-\LL	.	.	.	.	.	.
.	.	.	.	16C\	.	.	.	.	.	.
8FF/J	7	.	.	16D\	.	.	.	.	.	.
.	.	.	.	16E-\JJ	.	.	.	.	.	.
8BB-/L	.	.	.	8D/	.	.	.	.	.	.
16D/L	.	.	.	8BB-/	-ra	.	.	.	.	.
16E-/JJ	.	.	.	.	.	.	.	.	.	.
!LO:TX:t=P:problem=mixed beam	!	!	!	!	!	!	!	!	!	!
8F\L	.	.	.	8F\	o-	.	.	.	.	.
8BB-/J	.	.	.	8B-\	-ra	.	.	.	.	.
=26	=26	=26	=26	=26	=26	=26	=26	=26	=26	=26
4F\	.	.	.	16A\LL	O-	1ryy	1ryy	1ryy	.	.
.	.	.	.	16G\	.	.	.	.	.	.
.	.	.	.	16A\	.	.	.	.	.	.
.	.	.	.	16B-\JJ	.	.	.	.	.	.
!LO:TX:t=P:problem=mixed beam	!	!	!	!	!	!	!	!	!	!
8F\L	.	.	.	16A\LL	.	.	.	.	.	.
.	.	.	.	16F\	.	.	.	.	.	.
8FF/J	.	.	.	16G\	.	.	.	.	.	.
.	.	.	.	16A\JJ	.	.	.	.	.	.
8BB-/L	.	.	.	16B-\	-ra	.	.	.	.	.
.	.	.	.	16BB-/LL	O-	.	.	.	.	.
8BB-/	.	.	.	16C/	.	.	.	.	.	.
.	.	.	.	16D/JJ	.	.	.	.	.	.
8C/	.	.	.	16E-/LL	.	.	.	.	.	.
.	.	.	.	16C/	.	.	.	.	.	.
8AA/J	.	.	.	16D/	.	.	.	.	.	.
.	.	.	.	16E-/JJ	.	.	.	.	.	.
!	!	!	!	!LO:LB:g=original	!	!	!	!	!	!
=27	=27	=27	=27	=27	=27	=27	=27	=27	=27	=27
8D/L	.	1r	1r	16F\LL	.	1ryy	1ryy	1ryy	.	.
.	.	.	.	16D\	.	.	.	.	.	.
8BB-/	.	.	.	16E-\	.	.	.	.	.	.
.	.	.	.	16F\JJ	.	.	.	.	.	.
8E-/	.	.	.	16G\LL	.	.	.	.	.	.
.	.	.	.	16E-\	.	.	.	.	.	.
8C/J	.	.	.	16F\	.	.	.	.	.	.
.	.	.	.	16G\JJ	.	.	.	.	.	.
!LO:TX:t=P:problem=mixed beam	!	!	!	!	!	!	!	!	!	!
8F\L	.	.	.	8A\	-ra	.	.	.	.	.
8E-\	.	.	.	(16B-\LL	pro	.	.	.	.	.
.	.	.	.	16E-\JJ)	.	.	.	.	.	.
!	!	!	!	!LO:TX:t=P:problem=mixed beam	!	!	!	!	!	!
8F\	.	.	.	(>8F\L	-no-	.	.	.	.	.
8FF/J	4	.	.	8FF/J)	.	.	.	.	.	.
.	3	.	.	.	.	.	.	.	.	.
=28	=28	=28	=28	=28	=28	=28	=28	=28	=28	=28
!LO:TX:t=P:problem=mixed beam	!	!	!	!	!	!	!	!	!	!
8BB-/L	.	8dd\L	8bb-\L	4BB-/	-bis	1ryy	1ryy	1ryy	.	.
8A\	.	16dd\L	16ff\L	.	.	.	.	.	.	.
.	.	16cc\JJ	16ee-\JJ	.	.	.	.	.	.	.
8B-\	.	8b-/L	16dd\LL	4r	.	.	.	.	.	.
.	.	.	16cc\	.	.	.	.	.	.	.
8B-\J	.	8f/J	16dd\	.	.	.	.	.	.	.
.	.	.	16b-\JJ	.	.	.	.	.	.	.
8A\L	.	8f/L	16cc/LL	2r	.	.	.	.	.	.
.	.	.	16f/	.	.	.	.	.	.	.
8A\	6	8f/	16g/	.	.	.	.	.	.	.
.	.	.	16a/JJ	.	.	.	.	.	.	.
8G\	.	8g/	16b-\LL	.	.	.	.	.	.	.
.	.	.	16cc\	.	.	.	.	.	.	.
8G\J	6	8g/J	16dd\	.	.	.	.	.	.	.
.	.	.	16ee-\JJ	.	.	.	.	.	.	.
!LO:LB:g=original	!	!	!	!	!	!	!	!	!	!
=29	=29	=29	=29	=29	=29	=29	=29	=29	=29	=29
8F\L	.	8a/L	8ff\L	00r	.	1ryy	1ryy	1ryy	00r	00r
8B-\J	.	8b-/	16ee-\L	.	.	.	.	.	.	.
.	.	.	16dd\JJ	.	.	.	.	.	.	.
8E-\L	6	8g/	16ee-\LL	.	.	.	.	.	.	.
.	.	.	16cc\	.	.	.	.	.	.	.
8F\J	.	8a/J	16ff\	.	.	.	.	.	.	.
.	.	.	16ee-\JJ	.	.	.	.	.	.	.
8BB-/L	.	8f/L	8dd\L	.	.	.	.	.	.	.
16BB-/L	.	16d/L	8b-\J	.	.	.	.	.	.	.
16C/JJ	-	16e-/JJ	.	.	.	.	.	.	.	.
!	!	!LO:TX:t=P:problem=mixed beam	!	!	!	!	!	!	!	!
8D/L	.	8f/L	16r	.	.	.	.	.	.	.
.	.	.	16b-\LL	.	.	.	.	.	.	.
8BB-/J	.	8dd\J	16dd\	.	.	.	.	.	.	.
.	.	.	16ff\JJ	.	.	.	.	.	.	.
=30	=30	=30	=30	=30	=30	=30	=30	=30	=30	=30
8E-\L	.	8b-/L	(16gg\LL	.	.	1ryy	1ryy	1ryy	.	.
.	.	.	16ee-\	.	.	.	.	.	.	.
8E-\	.	8b-/	16dd\	.	.	.	.	.	.	.
.	.	.	16ee-\JJ)	.	.	.	.	.	.	.
!	!	!	!LO:LB:g=original	!	!	!	!	!	!	!
8E-\	.	8b-/	(16gg\LL	.	.	.	.	.	.	.
.	.	.	16ee-\	.	.	.	.	.	.	.
8E-\J	.	8b-/J	16dd\	.	.	.	.	.	.	.
.	.	.	16ee-\JJ)	.	.	.	.	.	.	.
4D/	.	4b-/	16ff\LL	.	.	.	.	.	.	.
.	.	.	16ee-\	.	.	.	.	.	.	.
.	.	.	16dd\	.	.	.	.	.	.	.
.	.	.	16cc\JJ	.	.	.	.	.	.	.
4r	.	4r	16b-\LL	.	.	.	.	.	.	.
.	.	.	16cc\	.	.	.	.	.	.	.
.	.	.	16dd\	.	.	.	.	.	.	.
.	.	.	16ee-\JJ	.	.	.	.	.	.	.
!	!	!LO:LB:g=original	!	!	!	!	!	!	!	!
=31	=31	=31	=31	=31	=31	=31	=31	=31	=31	=31
8D/L	.	8b-/L	(16ff\LL	.	.	1ryy	1ryy	1ryy	.	.
.	.	.	16dd\	.	.	.	.	.	.	.
8D/	6	8b-/	16cc\	.	.	.	.	.	.	.
.	.	.	16dd\JJ)	.	.	.	.	.	.	.
8D/	.	8b-/	(16ff\LL	.	.	.	.	.	.	.
.	.	.	16dd\	.	.	.	.	.	.	.
8D/J	.	8b-/J	16cc\	.	.	.	.	.	.	.
.	.	.	16dd\JJ)	.	.	.	.	.	.	.
4C/	-	4g/	16ee-\LL	.	.	.	.	.	.	.
.	.	.	16dd\	.	.	.	.	.	.	.
.	.	.	16cc\	.	.	.	.	.	.	.
.	.	.	16b-\JJ	.	.	.	.	.	.	.
4r	.	4r	16a\LL	.	.	.	.	.	.	.
.	.	.	16b-\	.	.	.	.	.	.	.
.	.	.	16cc\	.	.	.	.	.	.	.
.	.	.	16dd\JJ	.	.	.	.	.	.	.
=32	=32	=32	=32	=32	=32	=32	=32	=32	=32	=32
8C/L	6	8a/L	(16ee-\LL	.	.	1ryy	1ryy	1ryy	.	.
.	.	.	16cc\	.	.	.	.	.	.	.
8C/	.	8a/	16b-\	.	.	.	.	.	.	.
.	.	.	16cc\JJ)	.	.	.	.	.	.	.
8C/	.	8a/	(16ee-\LL	.	.	.	.	.	.	.
.	.	.	16cc\	.	.	.	.	.	.	.
8C/J	.	8a/J	16b-\	.	.	.	.	.	.	.
.	.	.	16cc\JJ)	.	.	.	.	.	.	.
4BB-/	.	4f/	16dd\LL	.	.	.	.	.	.	.
.	.	.	16cc\	.	.	.	.	.	.	.
.	.	.	16b-\	.	.	.	.	.	.	.
.	.	.	16a\JJ	.	.	.	.	.	.	.
4r	.	8r	16b-\LL	.	.	.	.	.	.	.
.	.	.	16cc\	.	.	.	.	.	.	.
.	.	8dd\	16dd\	.	.	.	.	.	.	.
.	.	.	16ee-\JJ	.	.	.	.	.	.	.
=33	=33	=33	=33	=33	=33	=33	=33	=33	=33	=33
8BB-/L	.	(16dd\LL	16ff\LL	0r	.	1ryy	1ryy	1ryy	0r	0r
.	.	16ee-\	16gg\	.	.	.	.	.	.	.
8BB-/J	.	16ee-\	16gg\	.	.	.	.	.	.	.
.	.	16dd\JJ)	16ff\JJ	.	.	.	.	.	.	.
8E-\L	6	16dd\LL	16ff\LL	.	.	.	.	.	.	.
.	.	16cc\	16ee-\	.	.	.	.	.	.	.
8E-\J	5	16cc\	16ee-\	.	.	.	.	.	.	.
.	.	16b-\JJ	16dd\JJ	.	.	.	.	.	.	.
!	!	!	!LO:TX:t=P:problem=mixed beam	!	!	!	!	!	!	!
8F\L	.	8a\L	8cc\L	.	.	.	.	.	.	.
16F\L	.	16a\L	8f/J	.	.	.	.	.	.	.
16G\JJ	.	16b-\JJ	.	.	.	.	.	.	.	.
8A\L	6	8cc\L	16r	.	.	.	.	.	.	.
.	.	.	16f/LL	.	.	.	.	.	.	.
8F\J	.	8a\J	16a/	.	.	.	.	.	.	.
.	.	.	16cc/JJ	.	.	.	.	.	.	.
!	!	!	!LO:PB:g=original	!	!	!	!	!	!	!
=34	=34	=34	=34	=34	=34	=34	=34	=34	=34	=34
8r	.	16cc\LL	16ee-\LL	.	.	1ryy	1ryy	1ryy	.	.
.	.	16b-\	16dd\	.	.	.	.	.	.	.
8F\L	7_	16a\	16cc\	.	.	.	.	.	.	.
.	.	16b-\JJ	16dd\JJ	.	.	.	.	.	.	.
8F\	.	16cc\LL	16ee-\LL	.	.	.	.	.	.	.
.	.	16ee-\	16gg\	.	.	.	.	.	.	.
8F\J	.	16dd\	16ff\	.	.	.	.	.	.	.
.	X	16cc\JJ	16ee-\JJ	.	.	.	.	.	.	.
8B-\L	.	8b-/L	16dd\LL	.	.	.	.	.	.	.
.	.	.	16cc\	.	.	.	.	.	.	.
8D\J	6	8f/	16b-\	.	.	.	.	.	.	.
.	.	.	16cc\JJ	.	.	.	.	.	.	.
8BB-/L	.	8f/	16dd\LL	.	.	.	.	.	.	.
.	.	.	16ff\	.	.	.	.	.	.	.
8D/J	6	8f/J	16ee-\	.	.	.	.	.	.	.
.	.	.	16dd\JJ	.	.	.	.	.	.	.
!LO:LB:g=original	!	!	!	!	!	!	!	!	!	!
=35	=35	=35	=35	=35	=35	=35	=35	=35	=35	=35
!LO:TX:t=P:problem=mixed beam	!	!	!	!	!	!	!	!	!	!
8E-\L	6 5	8g/L	16cc\LL	1r	.	1ryy	1ryy	1ryy	1r	1r
.	.	.	16dd\	.	.	.	.	.	.	.
8C\	7	8e-/	16b-\	.	.	.	.	.	.	.
.	.	.	16cc\JJ	.	.	.	.	.	.	.
8F\	.	8c/	8f/L	.	.	.	.	.	.	.
8FF/J	4	8f/J	8a/J	.	.	.	.	.	.	.
.	7	.	.	.	.	.	.	.	.	.
4BB-/	.	4d/	4b-/	.	.	.	.	.	.	.
4r	.	4r	4r	.	.	.	.	.	.	.
==	==	==	==	==	==	==	==	==	==	==
*-	*-	*-	*-	*-	*-	*-	*-	*-	*-	*-
!!!system-decoration: [g1][g2][g3]
!!!RDF**kern: > = above
!!!RDF**kern: < = below
!!!ENC: Marta Lawrence
!!!END: 2020-11-05
!!!ENC: Tomasz Grochalski
!!!END: 2020-05-03
